X: 2123
T: the PERRIE WHERRIE
C:
Q: "Reel."
R: Reel.
%R: reel
N: This is version 2, for ABC software that understands voice overlays.
B: James Kerr "Merry Melodies" v.2 p.15 #123
Z: 2016 John Chambers <jc:trillian.mit.edu>
M: C
L: 1/8
K: G
uc |\
BGGA GAGc | BGGB gfgd |\
BGGA GAGB | A=FFA c3 ::\
c |\
(Bd)(de) dedc | x4 "^2nd"g3d & Bdde "_1st"gdec |\
[1 (Bd)(de) dedB | A=FFA c3 :|\
[2 gbeg dgBg | A=FFA c3 |]
